!!!OTL: DIE MUTTER SPRACH ZUM TOECHTERLEIN
!!!ARE: Europa, Mitteleuropa, Deutschland
!!!SCT: E0833
!!!YEM: Copyright 1995, estate of Helmut Schaffrath.
**kern
*ICvox
*Ivox
*M3/4
*k[b-e-]
*g:
{4g
=1
2b-
4g
=2
2b-
4cc
=3
4.dd
8ee-
4ffn
=4
2ee-}
{4dd
=5
2cc
4b-
=6
2a
4g
=7
2.f#
=8
4g
4r}
{4g
=9
2b-
4g
=10
2b-
4cc
=11
4.dd
8ee-
4ffn
=12
2ee-}
{4dd
=13
2cc
4b-
=14
2a
4g
=15
2.f#
=16
4g
4r}
{4a
=17
4.b-
8a
4b-
=18
4.cc
8b-
4cc
=19
4.dd
8cc
4dd
=20
2ee-}
{4dd
=21
2cc
4b-
=22
2b-
4a
=23
2b-}
{4dd
=24
4.dd
8ee
4ffn
=25
4.dd
8ee
4ffn
=26
4.dd
8cc
4b-
=27
4.a
8b-}
{4cc
=28
4.b-
8a
4g
=29
4.f#
8g
4a
=30
[2.g
=31
4g]
4r}
==
!!!AGN: Hochzeits -, Ehestands - Lied
!!!ONB: ESAC (Essen Associative Code) Database: ERK2
!!!AMT: simple triple
!!!AIN: vox
!!!EED: Helmut Schaffrath
!!!EEV: 1.0
*-
